X:1
T: Miss Z Loughman
C:Miss Sharpe
R:Strathspey
Q: 128
K:C
M:4/4
L:1/16
|:F2|E2G2 G2G2 G3c G2E2|D2CE E2C2 A,4 A,2F2|E2G2 G2G2 G3c AGFE|D3C D2E2 C4 C2F2|
E2G2 G2G2 G3c G2E2|D2CE E2C2 A,4 A,2F2|E2G2 A2B2 c3A AGFE|D3C D2E2 C4 C2G2|
c3d e3d c3A G2E2|D2CD E2C2 A,4 A,2G2|c3d e2c2 f2a2 g2e2|d3c d2e2 c4 c2G2|
c3d e2c2 f3a agfe|d2cd e2c2 A4 A2B2|c3A G2E2 G3A AGFE|DCDE GFED C4 C2:|
